svgs/rain.svg

<svg width="192" height="192" viewBox="0 0 192 192" fill="none" xmlns="http://www.w3.org/2000/svg">
<path d="M158.83 89.8545H36.9204C36.8433 89.8545 36.7643 89.8452 36.6893 89.8272C16.3803 84.9468 15.0972 57.5864 45.7807 52.4503C46.195 52.381 46.5412 52.0568 46.6302 51.6463C50.4219 34.1659 63.3988 27.1169 79.9016 31.6311C80.1972 31.712 80.5157 31.6588 80.7666 31.4829C102.493 16.2575 146.155 23.3903 150.459 60.9773C150.523 61.538 151.04 61.9578 151.602 61.9115C170.163 60.384 178 81.3892 159.235 89.7677C159.109 89.8239 158.967 89.8545 158.83 89.8545Z" stroke="black" stroke-width="12" stroke-linecap="round"/>
<path d="M117.654 130.213C117.654 132.327 115.941 134.04 113.827 134.04C111.713 134.04 110 132.327 110 130.213C110 127.858 113.827 123 113.827 123C113.827 123 117.654 127.858 117.654 130.213Z" stroke="black" stroke-width="6" stroke-linejoin="round"/>
<path d="M81.7344 121.173C81.7344 123.861 79.5553 126.04 76.8672 126.04C74.1791 126.04 72 123.861 72 121.173C72 118.178 76.8672 112 76.8672 112C76.8672 112 81.7344 118.178 81.7344 121.173Z" stroke="black" stroke-width="6" stroke-linejoin="round"/>
<path d="M50.6544 122.213C50.6544 124.327 48.9409 126.04 46.8272 126.04C44.7135 126.04 43 124.327 43 122.213C43 119.858 46.8272 115 46.8272 115C46.8272 115 50.6544 119.858 50.6544 122.213Z" stroke="black" stroke-width="6" stroke-linejoin="round"/>
<path d="M99.1211 162.479C99.1211 165.55 96.6316 168.04 93.5605 168.04C90.4895 168.04 88 165.55 88 162.479C88 159.058 93.5605 152 93.5605 152C93.5605 152 99.1211 159.058 99.1211 162.479Z" stroke="black" stroke-width="6" stroke-linejoin="round"/>
<path d="M75.6544 144.213C75.6544 146.327 73.9409 148.04 71.8272 148.04C69.7135 148.04 68 146.327 68 144.213C68 141.858 71.8272 137 71.8272 137C71.8272 137 75.6544 141.858 75.6544 144.213Z" stroke="black" stroke-width="6" stroke-linejoin="round"/>
<path d="M157.121 127.479C157.121 130.55 154.632 133.04 151.561 133.04C148.49 133.04 146 130.55 146 127.479C146 124.058 151.561 117 151.561 117C151.561 117 157.121 124.058 157.121 127.479Z" stroke="black" stroke-width="6" stroke-linejoin="round"/>
<path d="M132.654 153.213C132.654 155.327 130.941 157.04 128.827 157.04C126.713 157.04 125 155.327 125 153.213C125 150.858 128.827 146 128.827 146C128.827 146 132.654 150.858 132.654 153.213Z" stroke="black" stroke-width="6" stroke-linejoin="round"/>
<path d="M35.2677 104.906C35.2677 106.637 33.8647 108.04 32.1339 108.04C30.4031 108.04 29 106.637 29 104.906C29 102.978 32.1339 99 32.1339 99C32.1339 99 35.2677 102.978 35.2677 104.906Z" stroke="black" stroke-width="6" stroke-linejoin="round"/>
<path d="M114.268 104.906C114.268 106.637 112.865 108.04 111.134 108.04C109.403 108.04 108 106.637 108 104.906C108 102.978 111.134 99 111.134 99C111.134 99 114.268 102.978 114.268 104.906Z" stroke="black" stroke-width="6" stroke-linejoin="round"/>
<path d="M149.268 104.906C149.268 106.637 147.865 108.04 146.134 108.04C144.403 108.04 143 106.637 143 104.906C143 102.978 146.134 99 146.134 99C146.134 99 149.268 102.978 149.268 104.906Z" stroke="black" stroke-width="6" stroke-linejoin="round"/>
<path d="M66.2677 104.906C66.2677 106.637 64.8647 108.04 63.1339 108.04C61.4031 108.04 60 106.637 60 104.906C60 102.978 63.1339 99 63.1339 99C63.1339 99 66.2677 102.978 66.2677 104.906Z" stroke="black" stroke-width="6" stroke-linejoin="round"/>
<path d="M99.2677 113.906C99.2677 115.637 97.8647 117.04 96.1339 117.04C94.4031 117.04 93 115.637 93 113.906C93 111.978 96.1339 108 96.1339 108C96.1339 108 99.2677 111.978 99.2677 113.906Z" stroke="black" stroke-width="6" stroke-linejoin="round"/>
<path d="M124.268 113.906C124.268 115.637 122.865 117.04 121.134 117.04C119.403 117.04 118 115.637 118 113.906C118 111.978 121.134 108 121.134 108C121.134 108 124.268 111.978 124.268 113.906Z" stroke="black" stroke-width="6" stroke-linejoin="round"/>
<path d="M98.2677 134.906C98.2677 136.637 96.8647 138.04 95.1339 138.04C93.4031 138.04 92 136.637 92 134.906C92 132.978 95.1339 129 95.1339 129C95.1339 129 98.2677 132.978 98.2677 134.906Z" stroke="black" stroke-width="6" stroke-linejoin="round"/>
</svg>

<svg width="192" height="192" viewBox="0 0 192 192" fill="none" xmlns="http://www.w3.org/2000/svg"><path d="M158.83 89.855H36.92a1 1 0 0 1-.23-.028c-20.31-4.88-21.593-32.24 9.09-37.377.415-.069.761-.393.85-.804 3.792-17.48 16.769-24.53 33.272-20.015.295.081.614.028.865-.148 21.726-15.226 65.388-8.093 69.692 29.494.064.561.581.98 1.143.934 18.561-1.527 26.398 19.478 7.633 27.857a1.01 1.01 0 0 1-.405.087Z" stroke="#000" stroke-width="12" stroke-linecap="round"/><path d="M117.654 130.213a3.826 3.826 0 1 1-7.654 0c0-2.355 3.827-7.213 3.827-7.213s3.827 4.858 3.827 7.213ZM81.734 121.173a4.867 4.867 0 0 1-9.734 0c0-2.995 4.867-9.173 4.867-9.173s4.867 6.178 4.867 9.173ZM50.654 122.213a3.827 3.827 0 1 1-7.654 0c0-2.355 3.827-7.213 3.827-7.213s3.827 4.858 3.827 7.213ZM99.121 162.479a5.56 5.56 0 1 1-11.121 0C88 159.058 93.56 152 93.56 152s5.561 7.058 5.561 10.479ZM75.654 144.213a3.827 3.827 0 1 1-7.654 0c0-2.355 3.827-7.213 3.827-7.213s3.827 4.858 3.827 7.213ZM157.121 127.479a5.56 5.56 0 1 1-11.121 0c0-3.421 5.561-10.479 5.561-10.479s5.56 7.058 5.56 10.479ZM132.654 153.213a3.826 3.826 0 1 1-7.654 0c0-2.355 3.827-7.213 3.827-7.213s3.827 4.858 3.827 7.213ZM35.268 104.906a3.134 3.134 0 1 1-6.268 0C29 102.978 32.134 99 32.134 99s3.134 3.978 3.134 5.906ZM114.268 104.906a3.134 3.134 0 1 1-6.268 0c0-1.928 3.134-5.906 3.134-5.906s3.134 3.978 3.134 5.906ZM149.268 104.906a3.134 3.134 0 1 1-6.268 0c0-1.928 3.134-5.906 3.134-5.906s3.134 3.978 3.134 5.906ZM66.268 104.906a3.134 3.134 0 1 1-6.268 0C60 102.978 63.134 99 63.134 99s3.134 3.978 3.134 5.906ZM99.268 113.906a3.134 3.134 0 1 1-6.268 0c0-1.928 3.134-5.906 3.134-5.906s3.134 3.978 3.134 5.906ZM124.268 113.906a3.134 3.134 0 1 1-6.268 0c0-1.928 3.134-5.906 3.134-5.906s3.134 3.978 3.134 5.906ZM98.268 134.906a3.134 3.134 0 1 1-6.268 0c0-1.928 3.134-5.906 3.134-5.906s3.134 3.978 3.134 5.906Z" stroke="#000" stroke-width="6" stroke-linejoin="round"/></svg>
